X:353
T:Murdo MacLeod of Earilish 
C:Joe Buchanan's Scottish Tome - Page 151.1
I:151 1
R:March
Z:Carl Allison
L:1/8
M:4/4
K:D
|:"D"d2 cd AFDF |"A7" GBAG "D"FA d2 | "A7"GBEG FA"D"DF | "E7"EA^GB "A7"Agfe |
"D"d2 cd AFDF | "A7"GBAG "D"FAde | "A7" fdce "D"dBAG |1 "A7" EdEc "D"d3 A :|2 "A7" EdEc "D"d3 e |]
|:"D"g2 fg afdf | "Em"gfed "A7"ceA^A |"G" B2 GB "D"A2 cB |"E7" B2 ed "A7"ceAc |
"D"d2 cd AFDF | "Em"GEed "A7"ceAc | "D"defd "A7"BeAg |1 "A7" feAc "D"d2 e :|2 "A7" feAc "D"d2 |]

